X: 26559
T: Mick Carr's
R: strathspey
M: 4/4
K: Gmajor
B2 B>G c>dc<G|B2 B>G c*AF>A|B2 B>G c2 B>c|d*gg>f g2:|
f2 d*c B>cd*e|=f*dd>c B*G G2|1 g2 d*B c2 B>c|d*gg>f g2:|
2 B2 (3BAG c2 (3ABc|d*gg>f g2||

